contributed-vectors/camera_mx_alt.svg

<svg xmlns="http://www.w3.org/2000/svg" xml:space="preserve" style="fill-rule:evenodd;clip-rule:evenodd;stroke-linejoin:round;stroke-miterlimit:2" viewBox="0 0 192 192"><path d="M164.5 21.5c0-5.519-4.481-10-10-10h-133c-5.519 0-10 4.481-10 10v133c0 5.519 4.481 10 10 10h133c5.519 0 10-4.481 10-10v-133Z" style="fill:#fff" transform="translate(8 8)"/><g transform="translate(31.623 31.745) scale(.67059)"><path d="M57.27 45.722c0-1.073-.562-2.101-1.564-2.86-1.002-.758-2.36-1.184-3.776-1.184H37.593c-1.417 0-2.775.426-3.777 1.184-1.001.759-1.564 1.787-1.564 2.86v3.908H57.27v-3.908Z" style="fill:#56595b" transform="matrix(1 0 0 1.32073 0 -15.918)"/><path d="M172.5 62.21c0-2.341-4.114-4.241-9.181-4.241H28.681c-5.067 0-9.181 1.9-9.181 4.241v38.645c0 2.341 4.114 4.241 9.181 4.241h134.638c5.067 0 9.181-1.9 9.181-4.241V62.21Z" style="fill:#9abeff" transform="matrix(1 0 0 2.16461 0 -80.117)"/><circle cx="96" cy="96.369" r="57.241" style="fill:#56595b"/><circle cx="96" cy="96.369" r="57.241" style="fill:#b1b5bd" transform="translate(38.421 38.569) scale(.59978)"/><circle cx="96" cy="96.369" r="57.241" style="fill:#4a4a4a" transform="translate(77.046 77.342) scale(.19744)"/><text x="135.804" y="70.207" style="font-family:&quot;Montserrat-ExtraBold&quot;,&quot;Montserrat&quot;;font-weight:800;font-size:14.355px;fill:#fff" transform="matrix(.95635 0 0 .95635 13.814 -6.481)">MX</text></g></svg>

<?xml version="1.0" encoding="UTF-8" standalone="no"?>
<!DOCTYPE svg PUBLIC "-//W3C//DTD SVG 1.1//EN" "http://www.w3.org/Graphics/SVG/1.1/DTD/svg11.dtd">
<svg width="100%" height="100%" viewBox="0 0 192 192" version="1.1" xmlns="http://www.w3.org/2000/svg" xmlns:xlink="http://www.w3.org/1999/xlink" xml:space="preserve" xmlns:serif="http://www.serif.com/" style="fill-rule:evenodd;clip-rule:evenodd;stroke-linejoin:round;stroke-miterlimit:2;">
    <g id="Layer1">
        <g transform="matrix(1,0,0,1,8,8)">
            <path d="M164.5,21.5C164.5,15.981 160.019,11.5 154.5,11.5L21.5,11.5C15.981,11.5 11.5,15.981 11.5,21.5L11.5,154.5C11.5,160.019 15.981,164.5 21.5,164.5L154.5,164.5C160.019,164.5 164.5,160.019 164.5,154.5L164.5,21.5Z" style="fill:white;"/>
        </g>
        <g transform="matrix(0.67059,0,0,0.67059,31.6234,31.7449)">
            <g transform="matrix(1,0,0,1.32073,0,-15.9178)">
                <path d="M57.27,45.722C57.27,44.649 56.708,43.621 55.706,42.862C54.704,42.104 53.346,41.678 51.93,41.678L37.593,41.678C36.176,41.678 34.818,42.104 33.816,42.862C32.815,43.621 32.252,44.649 32.252,45.722C32.252,47.687 32.252,49.63 32.252,49.63L57.27,49.63L57.27,45.722Z" style="fill:rgb(86,89,91);"/>
            </g>
            <g transform="matrix(1,0,0,2.16461,0,-80.1172)">
                <path d="M172.5,62.21C172.5,59.869 168.386,57.969 163.319,57.969L28.681,57.969C23.614,57.969 19.5,59.869 19.5,62.21L19.5,100.855C19.5,103.196 23.614,105.096 28.681,105.096L163.319,105.096C168.386,105.096 172.5,103.196 172.5,100.855L172.5,62.21Z" style="fill:rgb(154,190,255);"/>
            </g>
            <circle cx="96" cy="96.369" r="57.241" style="fill:rgb(86,89,91);"/>
            <g transform="matrix(0.59978,0,0,0.59978,38.4211,38.5688)">
                <circle cx="96" cy="96.369" r="57.241" style="fill:rgb(177,181,189);"/>
            </g>
            <g transform="matrix(0.197442,0,0,0.197442,77.0456,77.3417)">
                <circle cx="96" cy="96.369" r="57.241" style="fill:rgb(74,74,74);"/>
            </g>
            <g transform="matrix(0.956349,0,0,0.956349,13.8138,-6.48116)">
                <text x="135.804px" y="70.207px" style="font-family:'Montserrat-ExtraBold', 'Montserrat';font-weight:800;font-size:14.355px;fill:white;">MX</text>
            </g>
        </g>
    </g>
</svg>
